X:1
T:Title
%%score { 1 | 2 }
L:1/8
M:6/8
K:Db
V:1 treble nm="Grand Piano"
V:2 bass 
V:1
 z3 z2[Q:1/4=100] [FA] | [FA]>[FA][FA] [DF][EG][FA] | B d2- d2 B | %3
 [FA]>[FA][FA] [FA][A,DF][K:bass][F,D] |[M:5/8] [A,CE]-[A,CE]- [A,CE]3 |[M:1/8][K:treble] [CGA] | %6
[M:3/4] [FA]>[FA] [FA][DF] [EG][FA] | Bd- d3 B | A>[FA] [DA][CA] [CE][CF] | D6 | %10
 [Fd]>[Fd] [Fd][Fe] [Fd]2 | B>=A B[Bd] [_Ac][GB] | [FA]>[FA] [FA][GB] [FA][A,DF] | %13
[M:5/8] [A,CE]-[A,CE]- [A,CE]3 |[M:1/8] [CGA] |[M:3/4] [DFA][A,DF] [A,EG] [DFA]2 [Ad] | dB c d2 B | %17
 AA- A/[DA]/[CA] [CE]>[CF] |[M:5/8] D-D- D3 |] %19
V:2
 z3 z2 [D,D] | [D,D]>[D,D][D,D] [D,A,][D,A,][D,D] | [G,DG] [G,B,G]2- [G,B,G]2 [G,DG] | %3
 [D,D]>[D,D][D,D] [D,D]D,D, |[M:5/8] A,,-A,,- A,,3 |[M:1/8] A,, | %6
[M:3/4] [D,D]>[D,D] [D,D][D,A,] [D,A,][D,D] | [G,DG][G,B,G]- [G,B,G]3 [G,DG] | %8
 [A,DF]>[K:bass][A,,A,] [A,,F,][A,,E,] [A,,G,][A,,A,] | [D,F,]6 | %10
 [D,A,]>[D,A,] [D,A,][D,A,] [D,D]2 | [G,DG]>[G,CG] [G,DG][G,D] [G,D][G,D] | %12
 [D,D]>[D,D] [D,D][D,D] [D,D]D, |[M:5/8] A,,-A,,- A,,3 |[M:1/8] A,, |[M:3/4] D,D, D, D,2 [F,A,] | %16
 [G,B,G][G,DG] [G,CG] [G,B,G]2 [G,DG] | %17
 [A,DF][A,F]- [A,F]/[K:bass][A,,F,]/[A,,G,] [A,,G,]>[A,,A,] |[M:5/8] [D,F,]-[D,F,]- [D,F,]3 |] %19

